!! 00026] TT[TB
!! Eigene Aufnahme
!!!OTL: Xiu he bao
!!!ARE: Asia, China,Yunnan, Midu
!! Ethnic Group: Han
!! II, 69
!!!SCT: C0089
!!!YEM: Copyright 1995, estate of Helmut Schaffrath.
**kern
*ICvox
*Ivox
*M4/4
*k[f#c#g#]
*A:
{8ff#
16ff#
16ee
8.cc#
16ee
4.ff#
8aa
=1
8ee
8ff#
16ff#
16ee
8cc#
8b
16cc#
16b
8a
8f#}
=2
{8ee
16ff#
16aa
8cc#
16cc#
16ee
8b
16cc#
16b
8a
8e
=3
16f#
16a
8b
16b
16a
8e
2f#}
=4
{8b
4b
16b
16ee
8.cc#
16ee
8b
8a
=5
16f#
16a
8b
16b
16a
8e
2f#}
=6
{16ee
8cc#
16cc#
8ee
16cc#
16ee
4.ff#
8aa
=7
8ee
8ff#
16ff#
16ee
8cc#
8b
16cc#
16b
8a
8f#}
=8
{8ee
16ff#
16aa
8cc#
16cc#
16ee
8b
16cc#
16b
8a
8e
=9
16f#
16a
8b
16b
16a
8e
2f#}
=10
{8b
4b
16ee
16ff#
8.cc#
16ee
8b
8a
=11
16f#
16a
8b
16b
16a
8e
2f#}
==
!!!AGN: Xiaodiao, Hua deng diao; gan ma diao
!! Vereinzelt Verzierungen. Vor- und Zwischenspiele weggelassen.
!!    Der Text der 2. Strophe wird z.T. auf andere Noten gesungen.
!!    Die Saengerin Lei Huilan ist Angehoerige der Zhuang Minderheit und
!!    studiert an der Guangzhouer Musikhochschule. +++ ANderes Lied!!! +++
!!    Aufgenommen am 5.5.87
!!    +++AUCH ALS KASSETTE 1 = 46, CUT 1 (A-Seite)
!!    Pinyin-Text der ersten Strophe vorhanden!
!!!ONB: ESAC (Essen Associative Code) Database: CHINA_095
!!!AMT: simple quadruple
!!!AIN: vox
!!!EED: Helmut Schaffrath
!!!EEV: 1.0
*-
